epam-assets/icon-sources/18/action-add-bold.svg

<svg width="18" height="18" viewBox="0 0 18 18" fill="none" xmlns="http://www.w3.org/2000/svg">
<g id="18/action-add-bold">
<path id="icon" d="M10.3125 2.25H7.6875V7.6875H2.25V10.3125H7.6875V15.75H10.3125V10.3125H15.75V7.6875H10.3125V2.25Z" fill="#6C6F80"/>
</g>
</svg>

<svg xmlns="http://www.w3.org/2000/svg" width="18" height="18" fill="none" viewBox="0 0 18 18">
  <path fill="#6C6F80" d="M10.313 2.25H7.687v5.438H2.25v2.625h5.438v5.437h2.625v-5.438h5.437V7.688h-5.438V2.25Z"/>
</svg>
